artwork/svg/list-remove-files.svg

<?xml version="1.0" encoding="UTF-8" standalone="no"?>
<!-- Created with Inkscape (http://www.inkscape.org/) -->

<svg
   xmlns:dc="http://purl.org/dc/elements/1.1/"
   xmlns:cc="http://creativecommons.org/ns#"
   xmlns:rdf="http://www.w3.org/1999/02/22-rdf-syntax-ns#"
   xmlns:svg="http://www.w3.org/2000/svg"
   xmlns="http://www.w3.org/2000/svg"
   xmlns:xlink="http://www.w3.org/1999/xlink"
   xmlns:sodipodi="http://sodipodi.sourceforge.net/DTD/sodipodi-0.dtd"
   xmlns:inkscape="http://www.inkscape.org/namespaces/inkscape"
   width="48px"
   height="48px"
   id="svg6431"
   sodipodi:version="0.32"
   inkscape:version="0.47 r22583"
   sodipodi:docname="list-remove-files.svg"
   inkscape:output_extension="org.inkscape.output.svg.inkscape"
   version="1.1"
   inkscape:export-filename="list-remove-files.png"
   inkscape:export-xdpi="60"
   inkscape:export-ydpi="60">
  <defs
     id="defs6433">
    <linearGradient
       id="linearGradient7916">
      <stop
         style="stop-color:#ffffff;stop-opacity:1;"
         offset="0"
         id="stop7918" />
      <stop
         style="stop-color:#ffffff;stop-opacity:0.34020618;"
         offset="1.0000000"
         id="stop7920" />
    </linearGradient>
    <linearGradient
       inkscape:collect="always"
       xlink:href="#linearGradient7916"
       id="linearGradient7922"
       x1="16.874998"
       y1="22.851799"
       x2="27.900846"
       y2="34.976799"
       gradientUnits="userSpaceOnUse" />
    <linearGradient
       inkscape:collect="always"
       xlink:href="#linearGradient15218"
       id="linearGradient13653"
       gradientUnits="userSpaceOnUse"
       gradientTransform="matrix(1.067236,0,0,0.989276,4.391684,4.035227)"
       x1="22.308331"
       y1="18.99214"
       x2="35.785294"
       y2="39.498238" />
    <linearGradient
       id="linearGradient15218">
      <stop
         style="stop-color:#f0f0ef;stop-opacity:1.0000000;"
         offset="0.0000000"
         id="stop15220" />
      <stop
         id="stop2269"
         offset="0.59928656"
         style="stop-color:#e8e8e8;stop-opacity:1;" />
      <stop
         id="stop2267"
         offset="0.82758623"
         style="stop-color:#ffffff;stop-opacity:1;" />
      <stop
         style="stop-color:#d8d8d3;stop-opacity:1.0000000;"
         offset="1.0000000"
         id="stop15222" />
    </linearGradient>
    <linearGradient
       inkscape:collect="always"
       xlink:href="#linearGradient2259"
       id="linearGradient13651"
       gradientUnits="userSpaceOnUse"
       gradientTransform="matrix(0.999421,0,0,1,5.991319,4.033411)"
       x1="26.076092"
       y1="26.696676"
       x2="30.811172"
       y2="42.007351" />
    <linearGradient
       inkscape:collect="always"
       id="linearGradient2259">
      <stop
         style="stop-color:#ffffff;stop-opacity:1;"
         offset="0"
         id="stop2261" />
      <stop
         style="stop-color:#ffffff;stop-opacity:0;"
         offset="1"
         id="stop2263" />
    </linearGradient>
    <linearGradient
       inkscape:collect="always"
       xlink:href="#linearGradient2224"
       id="linearGradient2230"
       x1="35.996582"
       y1="40.458221"
       x2="33.664921"
       y2="37.770721"
       gradientUnits="userSpaceOnUse"
       gradientTransform="translate(6.161836,4.033411)" />
    <linearGradient
       id="linearGradient2224">
      <stop
         style="stop-color:#7c7c7c;stop-opacity:1;"
         offset="0"
         id="stop2226" />
      <stop
         style="stop-color:#b8b8b8;stop-opacity:1;"
         offset="1"
         id="stop2228" />
    </linearGradient>
    <linearGradient
       inkscape:collect="always"
       xlink:href="#linearGradient2251"
       id="linearGradient2257"
       x1="33.396004"
       y1="36.921333"
       x2="34.170048"
       y2="38.070381"
       gradientUnits="userSpaceOnUse"
       gradientTransform="translate(6.161836,3.658411)" />
    <linearGradient
       inkscape:collect="always"
       id="linearGradient2251">
      <stop
         style="stop-color:#ffffff;stop-opacity:1;"
         offset="0"
         id="stop2253" />
      <stop
         style="stop-color:#ffffff;stop-opacity:0;"
         offset="1"
         id="stop2255" />
    </linearGradient>
  </defs>
  <sodipodi:namedview
     id="base"
     pagecolor="#ffffff"
     bordercolor="#666666"
     borderopacity="0.10980392"
     inkscape:pageopacity="0.0"
     inkscape:pageshadow="2"
     inkscape:zoom="5.6568542"
     inkscape:cx="21.725547"
     inkscape:cy="12.249638"
     inkscape:current-layer="layer1"
     showgrid="false"
     inkscape:grid-bbox="true"
     inkscape:document-units="px"
     inkscape:window-width="1280"
     inkscape:window-height="714"
     inkscape:window-x="-4"
     inkscape:window-y="-4"
     inkscape:showpageshadow="false"
     inkscape:window-maximized="1" />
  <metadata
     id="metadata6436">
    <rdf:RDF>
      <cc:Work
         rdf:about="">
        <dc:format>image/svg+xml</dc:format>
        <dc:type
           rdf:resource="http://purl.org/dc/dcmitype/StillImage" />
        <dc:title></dc:title>
        <dc:date>2006-01-04</dc:date>
        <dc:creator>
          <cc:Agent>
            <dc:title>Andreas Nilsson</dc:title>
          </cc:Agent>
        </dc:creator>
        <dc:source>http://tango-project.org</dc:source>
        <dc:subject>
          <rdf:Bag>
            <rdf:li>remove</rdf:li>
            <rdf:li>delete</rdf:li>
          </rdf:Bag>
        </dc:subject>
        <cc:license
           rdf:resource="http://creativecommons.org/licenses/publicdomain/" />
      </cc:Work>
      <cc:License
         rdf:about="http://creativecommons.org/licenses/publicdomain/">
        <cc:permits
           rdf:resource="http://creativecommons.org/ns#Reproduction" />
        <cc:permits
           rdf:resource="http://creativecommons.org/ns#Distribution" />
        <cc:permits
           rdf:resource="http://creativecommons.org/ns#DerivativeWorks" />
      </cc:License>
    </rdf:RDF>
  </metadata>
  <g
     id="layer1"
     inkscape:label="Layer 1"
     inkscape:groupmode="layer">
    <path
       style="font-size:59.90107700000000100px;font-style:normal;font-variant:normal;font-weight:bold;font-stretch:normal;text-align:start;line-height:125%;writing-mode:lr-tb;text-anchor:start;fill:#00ff00;fill-opacity:1;stroke:#00b200;stroke-width:1.00000040000000000px;stroke-linecap:butt;stroke-linejoin:miter;stroke-opacity:1;font-family:Bitstream Vera Sans"
       d="M 27.514356,28.359472 L 39.633445,28.475543 L 39.633445,21.480219 L 27.523285,21.480219 L 20.502546,21.462362 L 8.5441705,21.489147 L 8.5084565,28.457686 L 20.511475,28.475543 L 27.514356,28.359472 z "
       id="text1314"
       sodipodi:nodetypes="ccccccccc" />
    <path
       style="font-size:59.90107700000000100px;font-style:normal;font-variant:normal;font-weight:bold;font-stretch:normal;text-align:start;line-height:125%;writing-mode:lr-tb;text-anchor:start;opacity:0.40860215000000000;fill:#00a900;fill-opacity:1;stroke:url(#linearGradient7922);stroke-width:1.00000059999999990px;stroke-linecap:butt;stroke-linejoin:miter;stroke-opacity:1;font-family:Bitstream Vera Sans"
       d="M 38.579429,27.484113 L 38.588357,22.475309 L 9.5267863,22.493166 L 9.5000003,27.466256 L 38.579429,27.484113 z "
       id="path7076"
       sodipodi:nodetypes="ccccc" />
    <path
       style="fill:#ffffff;fill-opacity:1.0000000;fill-rule:evenodd;stroke:none;stroke-width:1.0000000px;stroke-linecap:butt;stroke-linejoin:miter;stroke-opacity:1.0000000;opacity:0.31182796"
       d="M 9.0000000,25.000000 C 9.0000000,26.937500 39.125000,24.062500 39.125000,25.000000 L 39.125000,22.000000 L 9.0000000,22.000000 L 9.0000000,25.000000 z "
       id="path7914"
       sodipodi:nodetypes="ccccc" />
    <g
       transform="matrix(0.63552616,0,0,0.63552616,17.542945,16.930991)"
       id="g12863">
      <path
         style="fill:url(#linearGradient13653);fill-opacity:1;fill-rule:evenodd;stroke:#888a85;stroke-width:1.00000024;stroke-linecap:butt;stroke-linejoin:miter;stroke-miterlimit:4;stroke-opacity:1;stroke-dashoffset:0"
         d="m 15.072946,10.500852 29.856385,0 c 0.31574,0 0.569926,0.253093 0.569926,0.567472 l 0,27.167362 c 0,2.476452 -6.87981,8.303087 -9.267932,8.303087 l -21.158379,0 c -0.31574,0 -0.569926,-0.253092 -0.569926,-0.567473 l 0,-34.902976 c 0,-0.314379 0.254186,-0.567472 0.569926,-0.567472 z"
         id="rect12413"
         sodipodi:nodetypes="ccccccccc" />
      <rect
         ry="0"
         rx="0"
         y="11.5"
         x="15.502951"
         height="34.040764"
         width="28.997349"
         id="rect15244"
         style="fill:none;stroke:url(#linearGradient13651);stroke-width:1.00000083;stroke-linecap:butt;stroke-linejoin:miter;stroke-miterlimit:4;stroke-opacity:1;stroke-dasharray:none;stroke-dashoffset:0" />
      <path
         sodipodi:nodetypes="cccc"
         id="path2210"
         d="m 36.220918,46.536966 c 2.030418,0.329898 9.588793,-4.529929 9.284411,-8.497844 -1.563262,2.423097 -4.758522,1.286738 -8.86728,1.445748 0,0 0.395369,6.552096 -0.417131,7.052096 z"
         style="color:#000000;fill:url(#linearGradient2230);fill-opacity:1;fill-rule:evenodd;stroke:#868a84;stroke-width:1.00000024;stroke-linecap:butt;stroke-linejoin:miter;stroke-miterlimit:4;stroke-opacity:1;stroke-dasharray:none;stroke-dashoffset:0;marker:none;visibility:visible;display:inline;overflow:visible" />
      <path
         style="opacity:0.36931817;color:#000000;fill:none;stroke:url(#linearGradient2257);stroke-width:0.99999982;stroke-linecap:butt;stroke-linejoin:miter;stroke-miterlimit:4;stroke-opacity:1;stroke-dasharray:none;stroke-dashoffset:0;marker:none;visibility:visible;display:inline;overflow:visible"
         d="m 37.671355,44.345464 c 1.369779,-0.683829 4.428249,-2.146465 5.72763,-4.027469 -1.596094,0.680055 -2.94781,0.209496 -5.702334,0.190405 0,0 0.162322,3.062094 -0.0253,3.837064 z"
         id="path2247"
         sodipodi:nodetypes="cccc" />
      <rect
         y="19.033415"
         x="20"
         height="2"
         width="21"
         id="rect2271"
         style="opacity:0.1704545;color:#000000;fill:#000000;fill-opacity:1;fill-rule:evenodd;stroke:none;stroke-width:1;marker:none;visibility:visible;display:inline;overflow:visible" />
      <rect
         style="opacity:0.1704545;color:#000000;fill:#000000;fill-opacity:1;fill-rule:evenodd;stroke:none;stroke-width:1;marker:none;visibility:visible;display:inline;overflow:visible"
         id="rect2273"
         width="19.992233"
         height="2"
         x="20"
         y="23.033415" />
      <rect
         y="27.033415"
         x="20"
         height="2"
         width="17.976702"
         id="rect2275"
         style="opacity:0.1704545;color:#000000;fill:#000000;fill-opacity:1;fill-rule:evenodd;stroke:none;stroke-width:1;marker:none;visibility:visible;display:inline;overflow:visible" />
      <rect
         style="opacity:0.1704545;color:#000000;fill:#000000;fill-opacity:1;fill-rule:evenodd;stroke:none;stroke-width:1;marker:none;visibility:visible;display:inline;overflow:visible"
         id="rect2277"
         width="21"
         height="2"
         x="20"
         y="31.033415" />
    </g>
  </g>
</svg>

<?xml version="1.0" encoding="UTF-8" standalone="no"?>
<!-- Created with Inkscape (http://www.inkscape.org/) -->

<svg
   xmlns:dc="http://purl.org/dc/elements/1.1/"
   xmlns:cc="http://creativecommons.org/ns#"
   xmlns:rdf="http://www.w3.org/1999/02/22-rdf-syntax-ns#"
   xmlns:svg="http://www.w3.org/2000/svg"
   xmlns="http://www.w3.org/2000/svg"
   xmlns:xlink="http://www.w3.org/1999/xlink"
   xmlns:sodipodi="http://sodipodi.sourceforge.net/DTD/sodipodi-0.dtd"
   xmlns:inkscape="http://www.inkscape.org/namespaces/inkscape"
   width="32"
   height="32"
   id="svg6431"
   sodipodi:version="0.32"
   inkscape:version="0.47 r22583"
   sodipodi:docname="list-remove-files.svg"
   inkscape:output_extension="org.inkscape.output.svg.inkscape"
   version="1.1"
   inkscape:export-filename="list-remove-files.png"
   inkscape:export-xdpi="90"
   inkscape:export-ydpi="90">
  <defs
     id="defs6433">
    <linearGradient
       inkscape:collect="always"
       xlink:href="#linearGradient15218"
       id="linearGradient13653"
       gradientUnits="userSpaceOnUse"
       gradientTransform="matrix(1.067236,0,0,0.989276,4.391684,4.035227)"
       x1="22.308331"
       y1="18.99214"
       x2="35.785294"
       y2="39.498238" />
    <linearGradient
       id="linearGradient15218">
      <stop
         style="stop-color:#f0f0ef;stop-opacity:1.0000000;"
         offset="0.0000000"
         id="stop15220" />
      <stop
         id="stop2269"
         offset="0.59928656"
         style="stop-color:#e8e8e8;stop-opacity:1;" />
      <stop
         id="stop2267"
         offset="0.82758623"
         style="stop-color:#ffffff;stop-opacity:1;" />
      <stop
         style="stop-color:#d8d8d3;stop-opacity:1.0000000;"
         offset="1.0000000"
         id="stop15222" />
    </linearGradient>
    <linearGradient
       inkscape:collect="always"
       xlink:href="#linearGradient2259"
       id="linearGradient13651"
       gradientUnits="userSpaceOnUse"
       gradientTransform="matrix(0.999421,0,0,1,5.991319,4.033411)"
       x1="26.076092"
       y1="26.696676"
       x2="30.811172"
       y2="42.007351" />
    <linearGradient
       inkscape:collect="always"
       id="linearGradient2259">
      <stop
         style="stop-color:#ffffff;stop-opacity:1;"
         offset="0"
         id="stop2261" />
      <stop
         style="stop-color:#ffffff;stop-opacity:0;"
         offset="1"
         id="stop2263" />
    </linearGradient>
    <linearGradient
       inkscape:collect="always"
       xlink:href="#linearGradient2224"
       id="linearGradient2230"
       x1="35.996582"
       y1="40.458221"
       x2="33.664921"
       y2="37.770721"
       gradientUnits="userSpaceOnUse"
       gradientTransform="translate(6.161836,4.033411)" />
    <linearGradient
       id="linearGradient2224">
      <stop
         style="stop-color:#7c7c7c;stop-opacity:1;"
         offset="0"
         id="stop2226" />
      <stop
         style="stop-color:#b8b8b8;stop-opacity:1;"
         offset="1"
         id="stop2228" />
    </linearGradient>
    <linearGradient
       inkscape:collect="always"
       xlink:href="#linearGradient2251"
       id="linearGradient2257"
       x1="33.396004"
       y1="36.921333"
       x2="34.170048"
       y2="38.070381"
       gradientUnits="userSpaceOnUse"
       gradientTransform="translate(6.161836,3.658411)" />
    <linearGradient
       inkscape:collect="always"
       id="linearGradient2251">
      <stop
         style="stop-color:#ffffff;stop-opacity:1;"
         offset="0"
         id="stop2253" />
      <stop
         style="stop-color:#ffffff;stop-opacity:0;"
         offset="1"
         id="stop2255" />
    </linearGradient>
    <linearGradient
       inkscape:collect="always"
       xlink:href="#linearGradient7916-1"
       id="linearGradient2894"
       gradientUnits="userSpaceOnUse"
       x1="16.874998"
       y1="22.851799"
       x2="27.900846"
       y2="34.976799" />
    <linearGradient
       id="linearGradient7916-1">
      <stop
         style="stop-color:#ffffff;stop-opacity:1;"
         offset="0"
         id="stop7918-7" />
      <stop
         style="stop-color:#ffffff;stop-opacity:0.34020618;"
         offset="1.0000000"
         id="stop7920-4" />
    </linearGradient>
  </defs>
  <sodipodi:namedview
     id="base"
     pagecolor="#ffffff"
     bordercolor="#666666"
     borderopacity="0.10980392"
     inkscape:pageopacity="0.0"
     inkscape:pageshadow="2"
     inkscape:zoom="7.9999999"
     inkscape:cx="14.187872"
     inkscape:cy="14.094055"
     inkscape:current-layer="layer1"
     showgrid="false"
     inkscape:grid-bbox="true"
     inkscape:document-units="px"
     inkscape:window-width="1280"
     inkscape:window-height="714"
     inkscape:window-x="-4"
     inkscape:window-y="-4"
     inkscape:showpageshadow="false"
     inkscape:window-maximized="1" />
  <metadata
     id="metadata6436">
    <rdf:RDF>
      <cc:Work
         rdf:about="">
        <dc:format>image/svg+xml</dc:format>
        <dc:type
           rdf:resource="http://purl.org/dc/dcmitype/StillImage" />
        <dc:title></dc:title>
        <dc:date>2006-01-04</dc:date>
        <dc:creator>
          <cc:Agent>
            <dc:title>Andreas Nilsson</dc:title>
          </cc:Agent>
        </dc:creator>
        <dc:source>http://tango-project.org</dc:source>
        <dc:subject>
          <rdf:Bag>
            <rdf:li>remove</rdf:li>
            <rdf:li>delete</rdf:li>
          </rdf:Bag>
        </dc:subject>
        <cc:license
           rdf:resource="http://creativecommons.org/licenses/publicdomain/" />
      </cc:Work>
      <cc:License
         rdf:about="http://creativecommons.org/licenses/publicdomain/">
        <cc:permits
           rdf:resource="http://creativecommons.org/ns#Reproduction" />
        <cc:permits
           rdf:resource="http://creativecommons.org/ns#Distribution" />
        <cc:permits
           rdf:resource="http://creativecommons.org/ns#DerivativeWorks" />
      </cc:License>
    </rdf:RDF>
  </metadata>
  <g
     id="layer1"
     inkscape:label="Layer 1"
     inkscape:groupmode="layer"
     transform="translate(0,-16)">
    <g
       id="g2889"
       transform="matrix(0.73929114,0,0,0.73929114,-1.7954406,13.540674)">
      <path
         sodipodi:nodetypes="ccccccccc"
         id="text1314"
         d="m 27.514356,28.359472 12.119089,0.116071 0,-6.995324 -12.11016,0 -7.020739,-0.01786 -11.9583755,0.02679 -0.035714,6.968539 12.0030185,0.01786 7.002881,-0.116071 z"
         style="font-size:59.90107727px;font-style:normal;font-variant:normal;font-weight:bold;font-stretch:normal;text-align:start;line-height:125%;writing-mode:lr-tb;text-anchor:start;fill:#00ff00;fill-opacity:1;stroke:#00b200;stroke-width:1.33854115;stroke-linecap:butt;stroke-linejoin:miter;stroke-miterlimit:4;stroke-opacity:1;stroke-dasharray:none;font-family:Bitstream Vera Sans" />
      <path
         sodipodi:nodetypes="ccccc"
         id="path7076"
         d="m 38.579429,27.484113 0.0089,-5.008804 -29.0615707,0.01786 -0.026786,4.97309 29.0794287,0.01786 z"
         style="font-size:59.90107727px;font-style:normal;font-variant:normal;font-weight:bold;font-stretch:normal;text-align:start;line-height:125%;writing-mode:lr-tb;text-anchor:start;opacity:0.40860213;fill:#00a900;fill-opacity:1;stroke:url(#linearGradient2894);stroke-width:1.0000006px;stroke-linecap:butt;stroke-linejoin:miter;stroke-opacity:1;font-family:Bitstream Vera Sans" />
      <path
         sodipodi:nodetypes="ccccc"
         id="path7914"
         d="m 9,25 c 0,1.9375 30.125,-0.9375 30.125,0 l 0,-3 L 9,22 9,25 z"
         style="opacity:0.31182796;fill:#ffffff;fill-opacity:1;fill-rule:evenodd;stroke:none" />
    </g>
    <g
       transform="matrix(0.39806593,0,0,0.39806593,12.40427,27.948248)"
       id="g12863">
      <path
         style="fill:url(#linearGradient13653);fill-opacity:1;fill-rule:evenodd;stroke:#888a85;stroke-width:1.88410997;stroke-linecap:butt;stroke-linejoin:miter;stroke-miterlimit:4;stroke-opacity:1;stroke-dasharray:none;stroke-dashoffset:0"
         d="m 15.072946,10.500852 29.856385,0 c 0.31574,0 0.569926,0.253093 0.569926,0.567472 l 0,27.167362 c 0,2.476452 -6.87981,8.303087 -9.267932,8.303087 l -21.158379,0 c -0.31574,0 -0.569926,-0.253092 -0.569926,-0.567473 l 0,-34.902976 c 0,-0.314379 0.254186,-0.567472 0.569926,-0.567472 z"
         id="rect12413"
         sodipodi:nodetypes="ccccccccc" />
      <rect
         ry="0"
         rx="0"
         y="11.5"
         x="15.502951"
         height="34.040764"
         width="28.997349"
         id="rect15244"
         style="fill:none;stroke:url(#linearGradient13651);stroke-width:1.00000083;stroke-linecap:butt;stroke-linejoin:miter;stroke-miterlimit:4;stroke-opacity:1;stroke-dasharray:none;stroke-dashoffset:0" />
      <path
         sodipodi:nodetypes="cccc"
         id="path2210"
         d="m 36.220918,46.536966 c 2.030418,0.329898 9.588793,-4.529929 9.284411,-8.497844 -1.563262,2.423097 -4.758522,1.286738 -8.86728,1.445748 0,0 0.395369,6.552096 -0.417131,7.052096 z"
         style="color:#000000;fill:url(#linearGradient2230);fill-opacity:1;fill-rule:evenodd;stroke:#868a84;stroke-width:1.00000024;stroke-linecap:butt;stroke-linejoin:miter;stroke-miterlimit:4;stroke-opacity:1;stroke-dasharray:none;stroke-dashoffset:0;marker:none;visibility:visible;display:inline;overflow:visible" />
      <path
         style="opacity:0.36931817;color:#000000;fill:none;stroke:url(#linearGradient2257);stroke-width:0.99999982;stroke-linecap:butt;stroke-linejoin:miter;stroke-miterlimit:4;stroke-opacity:1;stroke-dasharray:none;stroke-dashoffset:0;marker:none;visibility:visible;display:inline;overflow:visible"
         d="m 37.671355,44.345464 c 1.369779,-0.683829 4.428249,-2.146465 5.72763,-4.027469 -1.596094,0.680055 -2.94781,0.209496 -5.702334,0.190405 0,0 0.162322,3.062094 -0.0253,3.837064 z"
         id="path2247"
         sodipodi:nodetypes="cccc" />
      <rect
         y="19.033415"
         x="20"
         height="2"
         width="21"
         id="rect2271"
         style="opacity:0.1704545;color:#000000;fill:#000000;fill-opacity:1;fill-rule:evenodd;stroke:none;stroke-width:1;marker:none;visibility:visible;display:inline;overflow:visible" />
      <rect
         style="opacity:0.1704545;color:#000000;fill:#000000;fill-opacity:1;fill-rule:evenodd;stroke:none;stroke-width:1;marker:none;visibility:visible;display:inline;overflow:visible"
         id="rect2273"
         width="19.992233"
         height="2"
         x="20"
         y="23.033415" />
      <rect
         y="27.033415"
         x="20"
         height="2"
         width="17.976702"
         id="rect2275"
         style="opacity:0.1704545;color:#000000;fill:#000000;fill-opacity:1;fill-rule:evenodd;stroke:none;stroke-width:1;marker:none;visibility:visible;display:inline;overflow:visible" />
      <rect
         style="opacity:0.1704545;color:#000000;fill:#000000;fill-opacity:1;fill-rule:evenodd;stroke:none;stroke-width:1;marker:none;visibility:visible;display:inline;overflow:visible"
         id="rect2277"
         width="21"
         height="2"
         x="20"
         y="31.033415" />
    </g>
  </g>
</svg>
